src/pos-icons/gamepad-round-outline.svg

<svg height="24" viewBox="0 0 24 24" width="24" xmlns="http://www.w3.org/2000/svg"><path d="m4 8h4v-4a2 2 0 0 1 2-2h4a2 2 0 0 1 2 2v4h4a2 2 0 0 1 2 2v4a2 2 0 0 1 -2 2h-4v4a2 2 0 0 1 -2 2h-4a2 2 0 0 1 -2-2v-4h-4a2 2 0 0 1 -2-2v-4a2 2 0 0 1 2-2m0 2v4h6v6h4v-6h6v-4h-6v-6h-4v6z"/></svg>

<?xml version="1.0" encoding="UTF-8"?><!DOCTYPE svg PUBLIC "-//W3C//DTD SVG 1.1//EN" "http://www.w3.org/Graphics/SVG/1.1/DTD/svg11.dtd"><svg xmlns="http://www.w3.org/2000/svg" xmlns:xlink="http://www.w3.org/1999/xlink" version="1.1" id="mdi-gamepad-round-outline" width="24" height="24" viewBox="0 0 24 24"><path d="M4,8H8V4A2,2 0 0,1 10,2H14A2,2 0 0,1 16,4V8H20A2,2 0 0,1 22,10V14A2,2 0 0,1 20,16H16V20A2,2 0 0,1 14,22H10A2,2 0 0,1 8,20V16H4A2,2 0 0,1 2,14V10A2,2 0 0,1 4,8M4,10V14H10V20H14V14H20V10H14V4H10V10H4Z" /></svg>
